!!! OTL: Berkowitz533
!!! Chapter: 1
!!! Section: IV
!!! Page: 133
!!! Mode: 
!!! Encoder: DJB
**kern
*staff1
*I"Piano
=1-
*clefG2
*k[]
*C:
*M12/8
[4.e/
8e/L]
8g/
8e/J
4c/
8d/
4.e/
=2
8e/L
8b/
8g#/J
8e/L
8f#/
8g#/J
8a\L
8cc#\
8a\J
8f#/L
8g#/
8f#/J
=3
[4.e/
8e/L]
8d#/
8e/J
8f/L
8e/
8d#/J
8c#/L
8e/
8d#/J
=4
8c/L
8G/
8c/J
8e/L
8f/
8g/J
2.d/
=5
!!linebreak:original
8e/L
8B/
8e/J
8g#/L
8a/
8b/J
2.f#/
=6
4.g/
4.f/
8e/L
8c/
8e/J
8a/L
8g/
8f/J
=7
4.A/
4.B/
4.c/
8r
8f/L
8e/J
=8
2.c/
4r
2r
==
*-
